X:1
T:E minor Daniel Belknap, 1797
T:Isaac Watts, 1709 (Hymn 63, Book 2)       86. 86. (C. M.)
T:Hopkinton
T:Transcribed from The Harmonist's Companion, 1797.
%%score [ 1 2 3 4 ]
L:1/8
Q:1/4=120
M:4/4
K:G
V:1 treble nm="Voice" snm="Tr."
V:2 treble nm="Voice" snm="C."
V:3 treble-8 nm="Tenor" snm="T."
V:4 bass nm="Bass" snm="B."
V:1
 B4 e2 e2 | e4 B4 | B2 B2 A4- | A4 e4 | (d3 c B2) A2 | B6 e2 | ^d8 |: e4 B2 B2 | B4 (B3 c) | %9
w: 1.~Hark! from the|tombs a|dole- ful sound;~|_ My|ears,~ _ _ at-|tend the|cry:|Ye li- ving|men, come *|
 de f2 e4- | e4 e4 | (d3 c B2) c2 | (d>cBc d2 dc | B2 B4) B2 | B8 |] %15
w: view * the ground~|_ Where|you~ _ _ must|short- * * * * * *|* * ly|lie.|
V:2
 E4 E2 E2 | E4 G4 | G2 G2 F4- | F4 G4 | D6 D2 | (E4 F2) G2 | F8 |: G4 G2 F2 | G4 G4 | FG A2 G4- | %10
w: 2.~Prin- ces, this|clay must|be your bed,~|_ In|spite of|all~ _ your|towers;|The tall, the|wise, the|reve- * rend head~|
 G4 G4 | G6 AG | (F6 FE | ^D6) D2 | E8 |] %15
w: _ Must|lie as *|low~ _ _|_ as|ours!|
V:3
 E4 B2 B2 | B4 e4 | d2 d2 d4- | d4 B4 | (G3 A) B2 c2 | (B>A G2 F3) E | B8 |: B4 e2 ^d2 | %8
w: 3.~Great God! is|this our|cer- tain doom,~|_ And|are~ _ _ we|still~ _ _ _ se-|cure?|Still wal- king|
 e4 (d3 e) | fe dc B4- | B4 B4 | (B3 c B2) A2 | (B>AGAB>A G2 | F6) F2 | E8 |] %15
w: down- ward *|to * the * tomb,~|_ And|yet~ _ _ pre-|pare~ _ _ _ _ _ _|_ no|more?|
V:4
 E,4 E,2 E,2 | E,4 E,4 | G,2 G,2 D,4- | D,4 E,4 | (B,3 A, G,2) F,2 | (E,4 D,2) E,2 | B,,8 |: %7
w: 4.~Grant us the|powers of|quick- ening grace,~|_ To|fit~ _ _ our|souls~ _ to|fly,|
 E,4 E,2 B,,2 | E,4 G,4 | D,2 D,2 E,4- | E,4 E,4 | (B,3 A, G,2) F,E, | B,,8- | B,,6 B,,2 | %14
w: Then, when we|drop this|dy- ing flesh,~|_ We'll|rise~ _ _ a- *|bove~|_ the|
 [E,,E,]8 |] %15
w: sky.|

